public/img/psychology/b20-star.svg

<?xml version="1.0" encoding="UTF-8"?> <svg xmlns="http://www.w3.org/2000/svg" width="49" height="50" viewBox="0 0 49 50" fill="none"> <path fill-rule="evenodd" clip-rule="evenodd" d="M20.9887 2.67064C20.9887 2.67065 20.9887 2.67065 20.9887 2.67066L15.0875 13.5254C14.1938 15.1693 12.5738 16.3001 10.7142 16.582L1.075 18.0431C0.801978 18.0844 0.5471 17.8967 0.505716 17.6236C0.464331 17.3506 0.652112 17.0957 0.925136 17.0543L10.5643 15.5933C12.117 15.3579 13.466 14.4143 14.2089 13.0478L14.6482 13.2866L14.2089 13.0478L20.1102 2.19301L20.1102 2.19299C21.3375 -0.0643294 24.6022 -0.0643294 25.8296 2.19299L25.8296 2.193L31.7147 13.0179L31.2771 13.2558L31.7147 13.0179C32.4659 14.3997 33.836 15.3481 35.4084 15.5706L45.7072 17.0277L45.6371 17.5228L45.7072 17.0277C48.502 17.4232 49.5011 20.9331 47.3038 22.7137L46.989 22.3253L47.3038 22.7137L39.851 28.753C38.2967 30.0126 37.6569 32.0687 38.2224 33.9732L41.6022 45.3545C42.505 48.3946 38.9262 50.7387 36.4581 48.7829L26.0939 40.571C24.268 39.1243 21.6718 39.1243 19.8459 40.571L9.48174 48.7829C7.01344 50.7387 3.43467 48.3946 4.33748 45.3545L7.72359 33.952L8.19879 34.0931L7.72359 33.9519C8.28623 32.0574 7.6559 30.0114 6.11693 28.7496L0.683085 24.2951C0.469528 24.1201 0.438324 23.805 0.613389 23.5915C0.788455 23.3779 1.1035 23.3467 1.31705 23.5218L6.75093 27.9762L6.75096 27.9763C8.5991 29.4915 9.36021 31.9536 8.68221 34.2366L5.2961 45.6392L4.96709 45.5415L5.2961 45.6392C4.68163 47.7084 7.13006 49.3704 8.86072 47.9991L19.2249 39.7872C21.4146 38.0522 24.5252 38.0522 26.7149 39.7872L26.4044 40.1791L26.7149 39.7872L37.0791 47.9991L36.7686 48.391L37.0791 47.9991C38.8096 49.3704 41.2581 47.7084 40.6435 45.6392L41.0597 45.5156L40.6435 45.6392L37.2638 34.2579L37.6799 34.1343L37.2637 34.2579C36.5823 31.963 37.3549 29.4887 39.2214 27.9761L39.5266 28.3527L39.2214 27.9761L46.6742 21.9368C48.1819 20.7149 47.5108 18.2929 45.5671 18.0178L35.2683 16.5607C33.3852 16.2943 31.7398 15.1577 30.8362 13.4955L24.951 2.67066C24.951 2.67065 24.951 2.67065 24.951 2.67064C24.1024 1.10979 21.8374 1.10979 20.9887 2.67064Z" fill="#FFDA6B"></path> </svg>

<svg xmlns="http://www.w3.org/2000/svg" width="49" height="50" fill="none"><path fill-rule="evenodd" clip-rule="evenodd" d="M20.989 2.67l-5.902 10.855a5.996 5.996 0 01-4.373 3.057l-9.639 1.461a.5.5 0 01-.15-.989l9.64-1.46a4.997 4.997 0 003.644-2.546l.44.239-.44-.24L20.11 2.194c1.227-2.257 4.492-2.257 5.72 0l5.885 10.825-.438.238.438-.238a4.997 4.997 0 003.693 2.553l10.3 1.457-.07.495.07-.495c2.794.395 3.793 3.905 1.596 5.686l-.315-.389.315.389-7.453 6.039a4.914 4.914 0 00-1.629 5.22l3.38 11.382c.903 3.04-2.676 5.384-5.144 3.428L26.094 40.57a5.04 5.04 0 00-6.248 0L9.482 48.783c-2.469 1.956-6.047-.388-5.145-3.428l3.387-11.403.475.141-.475-.141a4.914 4.914 0 00-1.607-5.202L.683 24.295a.5.5 0 11.634-.773l5.434 4.454a5.914 5.914 0 011.931 6.26L5.296 45.64l-.329-.098.33.098C4.681 47.71 7.13 49.37 8.86 48l10.364-8.212a6.04 6.04 0 017.49 0l-.31.392.31-.392L37.079 48l-.31.392.31-.392c1.73 1.371 4.18-.29 3.565-2.36l.416-.123-.416.123-3.38-11.381.416-.124-.416.124a5.914 5.914 0 011.957-6.282l.306.377-.306-.377 7.453-6.04c1.508-1.221.837-3.643-1.107-3.918L35.268 16.56a5.996 5.996 0 01-4.432-3.066L24.951 2.671c-.849-1.561-3.114-1.561-3.962 0z" fill="#FFDA6B"/></svg>
